src/img/map-point-wave.svg

<svg fill="none" height="24" viewBox="0 0 24 24" width="24" xmlns="http://www.w3.org/2000/svg"><g fill="#1c274c"><path d="m12 22.0003c5.5228 0 10-2.0147 10-4.5 0-1.2666-1.163-2.4111-3.0346-3.2288-1.1421 2.0958-2.8837 3.9023-5.0959 4.8477-1.1891.5082-2.5499.5082-3.739 0-2.21222-.9454-3.95384-2.7519-5.09592-4.8477-1.87163.8177-3.03458 1.9622-3.03458 3.2288 0 2.4853 4.47715 4.5 10 4.5z"/><path clip-rule="evenodd" d="m5 8.51464c0-3.59794 3.13401-6.51464 7-6.51464 3.866 0 7 2.9167 7 6.51464 0 3.56976-2.2342 7.73526-5.7199 9.22496-.8126.3472-1.7476.3472-2.5602 0-3.48574-1.4897-5.7199-5.6552-5.7199-9.22496zm7 2.48536c1.1046 0 2-.8954 2-2 0-1.10457-.8954-2-2-2s-2 .89543-2 2c0 1.1046.8954 2 2 2z" fill-rule="evenodd"/></g></svg>

<!DOCTYPE svg PUBLIC "-//W3C//DTD SVG 1.1//EN" "http://www.w3.org/Graphics/SVG/1.1/DTD/svg11.dtd">
<!-- Uploaded to: SVG Repo, www.svgrepo.com, Transformed by: SVG Repo Mixer Tools -->
<svg width="800px" height="800px" viewBox="0 0 24 24" fill="none" xmlns="http://www.w3.org/2000/svg">
<g id="SVGRepo_bgCarrier" stroke-width="0"/>
<g id="SVGRepo_tracerCarrier" stroke-linecap="round" stroke-linejoin="round"/>
<g id="SVGRepo_iconCarrier"> <path d="M12 22.0003C17.5228 22.0003 22 19.9856 22 17.5003C22 16.2337 20.837 15.0892 18.9654 14.2715C17.8233 16.3673 16.0817 18.1738 13.8695 19.1192C12.6804 19.6274 11.3196 19.6274 10.1305 19.1192C7.91828 18.1738 6.17666 16.3673 5.03458 14.2715C3.16295 15.0892 2 16.2337 2 17.5003C2 19.9856 6.47715 22.0003 12 22.0003Z" fill="#ffffff"/> <path fill-rule="evenodd" clip-rule="evenodd" d="M5 8.51464C5 4.9167 8.13401 2 12 2C15.866 2 19 4.9167 19 8.51464C19 12.0844 16.7658 16.2499 13.2801 17.7396C12.4675 18.0868 11.5325 18.0868 10.7199 17.7396C7.23416 16.2499 5 12.0844 5 8.51464ZM12 11C13.1046 11 14 10.1046 14 9C14 7.89543 13.1046 7 12 7C10.8954 7 10 7.89543 10 9C10 10.1046 10.8954 11 12 11Z" fill="#ffffff"/> </g>
</svg>
